X: 15880
T: Graf Spee, The
R: reel
M: 4/4
K: Ddorian
E2ED EG3|AGcG AGcG|EDCD EG3|AGcA GEED:|
e3d c3 A|GE3 GAcd|efed c3A|GECD EDD2|
e3d c3 A|GE3 GAcd|e2ag e3d|cAGE EDD2||
egga gedg|eaab abag|e3d c3d|eaag eddg:|
eccB cAGE|GAcd edcE|GAcd e2dc|AEGE EDD2:|
egcd egce|fade fadf|efed cdcA|GAcd edd2|
ea3 gecf|ecdB cAGE|GAcd e2dc|AcGE EDD2||

